app/assets/img/cat-care.svg

<svg height="38" viewBox="0 0 60 38" width="60" xmlns="http://www.w3.org/2000/svg"><path d="m62.6404747 49.4473693c-4.2477721 0-7.6766966-3.3810314-7.6766966-7.5694734 0-4.1884419 3.4289245-7.5694733 7.6766966-7.5694733s7.6511076 3.3810314 7.6511076 7.5694733c0 4.188442-3.4033355 7.5694734-7.6511076 7.5694734zm-22.3505983-1.7810526c-4.956916 0-8.958282-3.9454774-8.958282-8.8331583 0-4.887681 4.001366-8.8331584 8.958282-8.8331584 4.9569161 0 8.9284211 3.9454774 8.9284211 8.8331584 0 4.8876809-3.971505 8.8331583-8.9284211 8.8331583zm-20.2898764 20.3133914c1.3476554-7.3758303 2.2272769-13.690682 8.5045756-16.0317921 6.2772988-2.3411101 19.7797238 1.3786924 32.3072742 1.2633182 12.5275504-.1153741 15.393376-3.3916528 15.692071 1.0546011s-2.5859461 6.4023969-9.1390085 6.9543377c-4.3687083.3679605-9.7795172.5519408-16.2324267.5519408l-.7214543 6.2075943c-13.0278777 0-20.70489 0-23.0310368 0-.4084875 0 .7472408-4.2933397.4535464-4.2933397-.8740641 0-2.1278913 4.2933397-2.6712347 4.2933397-2.7840054 0-5.1459047.0202919-5.1623062 0zm33.9459808.0202919c0-1.9012581 0-2.912763 0-3.0345147 15.3667208-.1654276 23.3662196-2.0048436 23.9984966-5.5182481l2.0555226 8.5527628z" transform="translate(-20 -30)"/></svg>

<?xml version="1.0" encoding="UTF-8"?>
<svg width="60px" height="38px" viewBox="0 0 60 38" version="1.1" xmlns="http://www.w3.org/2000/svg" xmlns:xlink="http://www.w3.org/1999/xlink">
    <!-- Generator: Sketch 50.2 (55047) - http://www.bohemiancoding.com/sketch -->
    <title>cat-care</title>
    <desc>Created with Sketch.</desc>
    <defs>
        <path d="M62.6404747,49.4473693 C58.3927026,49.4473693 54.9637781,46.0663379 54.9637781,41.8778959 C54.9637781,37.689454 58.3927026,34.3084226 62.6404747,34.3084226 C66.8882468,34.3084226 70.2915823,37.689454 70.2915823,41.8778959 C70.2915823,46.0663379 66.8882468,49.4473693 62.6404747,49.4473693 Z M40.2898764,47.6663167 C35.3329604,47.6663167 31.3315944,43.7208393 31.3315944,38.8331584 C31.3315944,33.9454774 35.3329604,30 40.2898764,30 C45.2467925,30 49.2182975,33.9454774 49.2182975,38.8331584 C49.2182975,43.7208393 45.2467925,47.6663167 40.2898764,47.6663167 Z M20,67.9797081 C21.3476554,60.6038778 22.2272769,54.2890261 28.5045756,51.947916 C34.7818744,49.6068059 48.2842994,53.3266084 60.8118498,53.2112342 C73.3394002,53.0958601 76.2052258,49.8195814 76.5039208,54.2658353 C76.8026158,58.7120892 73.9179747,60.6682322 67.3649123,61.220173 C62.996204,61.5881335 57.5853951,61.7721138 51.1324856,61.7721138 L50.4110313,67.9797081 C37.3831536,67.9797081 29.7061413,67.9797081 27.3799945,67.9797081 C26.971507,67.9797081 28.1272353,63.6863684 27.8335409,63.6863684 C26.9594768,63.6863684 25.7056496,67.9797081 25.1623062,67.9797081 C22.3783008,67.9797081 20.0164015,68 20,67.9797081 Z M53.9459808,68 C53.9459808,66.0987419 53.9459808,65.087237 53.9459808,64.9654853 C69.3127016,64.8000577 77.3122004,62.9606417 77.9444774,59.4472372 L80,68 L53.9459808,68 Z" id="path-1"></path>
    </defs>
    <g id="Page-1" stroke="none" stroke-width="1" fill="none" fill-rule="evenodd">
        <g id="askdarcel/icon/category/care" transform="translate(-20.000000, -30.000000)">
            <mask id="mask-2" fill="white">
                <use xlink:href="#path-1"></use>
            </mask>
            <use id="cat-care" fill="#000000" fill-rule="nonzero" xlink:href="#path-1"></use>
        </g>
    </g>
</svg>
